X:1
T:Lasses Liking
M:9/8
L:1/8
S:William Vickers 1770 music manuscript collection (Northumberland)
K:D
D|F/G/AF d2G FDF|G2B GEE E2G|F/G/AF d2F FDF|F2A FDD D2:|
|:A|d2f ecA BdB|G2B GEE E2A|d2f ecA BdB|F2A FDD D2:|]

